X:25
T:Providence CM
S:John Moore's Book 3
Z:Transcribed by John Adams 05/2021  
%%VWML:Moore1-4495-p43-0
F:https://www.vwml.org/record/Moore3/4495/p43
M:2/4
L:1/8
K:Dmaj
V:1
A2A> A|B2(AB)|A2A2|F3A|d2A2|(BA) (GF)|c3d|c2(cB)|A2^G2|A4||
V:2
f2e> e|d2(de)|d2c2|d3c|(df) (fa)|g2(ef)|(ea2)a|(af) (ef)|e2d2|c4||
V:3
"Air"d2A> B|(GF) (AG)|F2E2|D3E|(FA) (Ad)|d2(cd)|e3f|(eA) (AB)|c2B2|A4||
V:4 clef=bass
D,2C,> C,|B,,2(F,G,)|A,2A,,2|D,3A,|D,2D,2|(G,F,) (E,D,)|A,3D,|A,2 C,D,|E,2E,2|A,,4||

